X:1
T:Whiskey Before Breakfast
C:Traditional
M:4/4
L:1/8
K:D
|:"D"DE FG AA A2|AB AG FE D2|"G"G2 GG "D"F2FF
|1,3 "A"E2 EF GF E2:|2,4 "A"EF E2 "D"D2 DD:||
|:"D"A2 d2 d2 de|f2 e2 d2 A2|"Em"B2 e2 e2 ef|
|"A"g2 f2 e2 ee|"D"d2 dd "Fm"c2 cc|"Bm"B2 BB "D"A2 AA|
|"G"G2 GG "D"F2 FF|1 "A"EF E2 "D"D4:|2 "A"EF E2 "D"D4||
